X:1
T: Yesterday Morning
C:
R:Jig
Q:180
K:G
M:6/8
L:1/16
GF|:D2G2G2 G2A2G2|F2D2F2 A2B2c2|B2d2B2 c2A2c2|B2G2A2 F2G2E2|
D2G2G2 G2A2G2|F2D2F2 A2B2c2|B2d2B2 c4B2|1A2G2F2 G4GF|2A2G2F2 G4c2|
|:B2d2d2 d2e2d2|e2f2g2 d4c2|B2G2B2 c2A2c2|B2G2A2 F2G2E2|
D2G2G2 G2A2G2|F2D2F2 A2B2c2|B2d2B2 c4B2|1A2G2F2 G4c2:|2A2G2F2 G4||
